www/assets/icons/luggage.svg

<svg xmlns="http://www.w3.org/2000/svg" width="24" height="24" viewBox="0 0 24 24" fill='currentColor'><path d="M17 6h-2V3c0-.55-.45-1-1-1h-4c-.55 0-1 .45-1 1v3H7c-1.1 0-2 .9-2 2v11c0 1.1.9 2 2 2 0 .55.45 1 1 1s1-.45 1-1h6c0 .55.45 1 1 1s1-.45 1-1c1.1 0 2-.9 2-2V8c0-1.1-.9-2-2-2M9.5 18H8V9h1.5zm3.25 0h-1.5V9h1.5zm.75-12h-3V3.5h3zM16 18h-1.5V9H16z"/></svg>

<svg width="24" height="24" viewBox="0 0 24 24" xmlns="http://www.w3.org/2000/svg" fill='currentColor'><path d="M17 6H15V3C15 2.45 14.55 2 14 2H10C9.45 2 9 2.45 9 3V6H7C5.9 6 5 6.9 5 8V19C5 20.1 5.9 21 7 21C7 21.55 7.45 22 8 22C8.55 22 9 21.55 9 21H15C15 21.55 15.45 22 16 22C16.55 22 17 21.55 17 21C18.1 21 19 20.1 19 19V8C19 6.9 18.1 6 17 6ZM9.5 18H8V9H9.5V18ZM12.75 18H11.25V9H12.75V18ZM13.5 6H10.5V3.5H13.5V6ZM16 18H14.5V9H16V18Z"/></svg>
